img/screens/empowering/05.svg

<svg width="140" height="90" viewBox="0 0 140 90" fill="none" xmlns="http://www.w3.org/2000/svg">
<mask id="mask0_10_336" style="mask-type:alpha" maskUnits="userSpaceOnUse" x="0" y="0" width="140" height="90">
<rect width="140" height="90" fill="#D9D9D9"/>
</mask>
<g mask="url(#mask0_10_336)">
<path fill-rule="evenodd" clip-rule="evenodd" d="M91.9092 83.9528C79.5267 86.1688 66.5385 86.7636 53.6439 84.1202C40.9615 81.5202 28.7233 76.7384 20.4491 69.3031C12.509 62.168 12.2676 53.1522 9.64601 44.583C6.76982 35.1814 -2.46606 24.5605 4.4178 16.9006C11.3201 9.22014 28.4781 11.085 41.5002 9.13758C52.2302 7.53294 62.4363 5.84044 73.6826 6.54223C87.3153 7.39295 102.368 7.03711 113.073 13.6039C124.196 20.4276 127.222 31.1691 129.824 40.9814C132.537 51.2141 135.608 62.4129 128.233 70.7714C120.936 79.0423 105.679 81.4884 91.9092 83.9528Z" fill="url(#paint0_linear_10_336)"/>
<path fill-rule="evenodd" clip-rule="evenodd" d="M93.9639 81.1881C81.5814 83.4041 68.5932 83.999 55.6986 81.3555C43.0162 78.7556 30.778 73.9737 22.5038 66.5384C14.5637 59.4034 14.3222 50.3875 11.7007 41.8183C8.82451 32.4168 -0.41137 21.7959 6.47249 14.1359C13.3747 6.45549 30.5328 8.32033 43.5549 6.37293C54.2849 4.76829 64.491 3.0758 75.7372 3.77758C89.37 4.62831 104.423 4.27247 115.127 10.8392C126.251 17.6629 129.276 28.4045 131.878 38.2168C134.592 48.4494 137.663 59.6483 130.288 68.0067C122.99 76.2777 107.734 78.7238 93.9639 81.1881Z" fill="url(#paint1_linear_10_336)"/>
</g>
<path d="M64.3175 66.7264C63.7578 66.7302 63.1994 66.6718 62.6525 66.5521C53.4385 64.5123 48.4609 53.4763 48.4609 44.0443C48.4609 37.5849 51.2417 32.1366 55.888 29.4779C60.0897 27.072 65.1979 27.2812 70.3672 30.0445C70.0924 28.0684 70.2334 26.0566 70.7813 24.1381C71.3293 22.2197 72.272 20.4369 73.549 18.904C73.7595 18.6533 74.0596 18.4949 74.3853 18.4623C74.7109 18.4297 75.0365 18.5256 75.2925 18.7296C75.5412 18.9414 75.6982 19.2412 75.7307 19.5662C75.7632 19.8912 75.6686 20.2162 75.4668 20.473C74.3314 21.7977 73.5071 23.3599 73.0546 25.0449C72.602 26.7299 72.5327 28.4949 72.8516 30.2101C78.0819 27.2812 83.3122 27.0109 87.6708 29.4605C92.3258 32.1279 95.0979 37.5762 95.0979 44.0356C95.0979 53.424 90.1291 64.5036 80.9063 66.5434C79.1019 66.9444 77.1144 66.5434 75.0135 66.1511C73.9762 65.9593 72.9039 65.7501 71.7707 65.6106C70.6462 65.7501 69.574 65.9593 68.5366 66.1511C67.1512 66.4737 65.7387 66.6663 64.3175 66.7264ZM62.2167 28.6846C60.1497 28.6714 58.1162 29.2068 56.3238 30.2363C51.9652 32.7381 49.3501 37.8987 49.3501 44.0443C49.3501 53.2235 54.4061 63.8323 62.8617 65.7065C64.4919 66.0639 66.3486 65.7065 68.4059 65.3055C69.4694 65.1051 70.5764 64.8871 71.762 64.7476H71.8579C73.0434 64.8871 74.1505 65.1051 75.214 65.3055C77.3148 65.7153 79.128 66.0639 80.7581 65.7065C89.2138 63.8323 94.261 53.2235 94.261 44.0443C94.261 37.9423 91.6459 32.712 87.2873 30.2276C83.1466 27.8565 78.0209 28.2313 72.8603 31.2649C72.7999 31.297 72.7326 31.3137 72.6642 31.3137C72.5958 31.3137 72.5285 31.297 72.4681 31.2649C72.4046 31.2404 72.3483 31.2004 72.3042 31.1487C72.26 31.097 72.2295 31.035 72.2153 30.9685C71.7473 29.0491 71.7403 27.0462 72.1948 25.1235C72.6494 23.2009 73.5525 21.4131 74.8304 19.9064C74.8958 19.8264 74.9269 19.7239 74.9171 19.6211C74.9073 19.5183 74.8574 19.4235 74.7781 19.3572C74.6994 19.2941 74.5998 19.263 74.4992 19.2701C74.3971 19.2806 74.3032 19.3307 74.2377 19.4096C72.9322 20.9573 71.9976 22.7828 71.5051 24.7468C71.0126 26.7108 70.9752 28.7613 71.3959 30.7419C71.41 30.8249 71.4013 30.9101 71.3706 30.9885C71.3399 31.0668 71.2883 31.1353 71.2215 31.1865C71.1496 31.2313 71.0666 31.255 70.9818 31.255C70.8971 31.255 70.814 31.2313 70.7421 31.1865C68.1727 29.6107 65.2302 28.7472 62.2167 28.6846Z" fill="#2E2E2E"/>
<path d="M69.2241 24.0213C67.6382 24.0789 66.0761 23.6234 64.7697 22.7224C62.1545 20.7 61.9191 16.6204 61.9104 16.4286C61.9071 16.3279 61.9381 16.2291 61.9982 16.1484C62.0584 16.0676 62.1442 16.0097 62.2417 15.984C62.416 15.984 66.391 15.0251 69.041 17.0388C71.6911 19.0525 71.8916 23.1408 71.9003 23.3326C71.9028 23.4334 71.8703 23.5319 71.8083 23.6113C71.7463 23.6908 71.6587 23.7463 71.5603 23.7685C70.794 23.9428 70.01 24.0276 69.2241 24.0213ZM65.2927 22.025C67.193 23.4634 69.9999 23.167 70.9937 22.9927C70.8804 21.9815 70.4009 19.1745 68.5093 17.7623C66.6177 16.3502 63.8108 16.6291 62.817 16.7947C62.9303 17.7972 63.401 20.6129 65.2927 22.025Z" fill="#2E2E2E"/>
<defs>
<linearGradient id="paint0_linear_10_336" x1="77.9908" y1="88.9041" x2="76.1016" y2="1.98126" gradientUnits="userSpaceOnUse">
<stop stop-color="#6D7582"/>
<stop offset="1" stop-color="#F4ECFF"/>
</linearGradient>
<linearGradient id="paint1_linear_10_336" x1="80.0455" y1="86.1395" x2="78.1563" y2="-0.783392" gradientUnits="userSpaceOnUse">
<stop stop-color="#E8F0FE"/>
<stop offset="1" stop-color="#F4ECFF"/>
</linearGradient>
</defs>
</svg>

<svg width="140" height="90" fill="none" xmlns="http://www.w3.org/2000/svg"><mask id="a" style="mask-type:alpha" maskUnits="userSpaceOnUse" x="0" y="0" width="140" height="90"><path fill="#D9D9D9" d="M0 0h140v90H0z"/></mask><g mask="url(#a)" fill-rule="evenodd" clip-rule="evenodd"><path d="M91.91 83.953c-12.383 2.216-25.371 2.81-38.266.167-12.682-2.6-24.92-7.382-33.195-14.817-7.94-7.135-8.181-16.15-10.803-24.72C6.77 35.181-2.466 24.561 4.418 16.901c6.902-7.68 24.06-5.816 37.082-7.763C52.23 7.533 62.436 5.84 73.683 6.542c13.632.851 28.685.495 39.39 7.062 11.123 6.824 14.149 17.565 16.751 27.377 2.713 10.233 5.784 21.432-1.591 29.79-7.297 8.271-22.554 10.717-36.324 13.182Z" fill="url(#b)"/><path d="M93.964 81.188c-12.383 2.216-25.37 2.811-38.265.168-12.683-2.6-24.921-7.382-33.195-14.818-7.94-7.135-8.182-16.15-10.803-24.72C8.825 32.417-.411 21.796 6.472 14.136c6.903-7.68 24.06-5.816 37.083-7.763 10.73-1.605 20.936-3.297 32.182-2.595 13.633.85 28.686.494 39.39 7.061 11.124 6.824 14.149 17.566 16.751 27.378 2.714 10.232 5.785 21.431-1.59 29.79-7.298 8.27-22.554 10.717-36.324 13.181Z" fill="url(#c)"/></g><path d="M64.317 66.726a7.547 7.547 0 0 1-1.664-.174c-9.215-2.04-14.192-13.076-14.192-22.508 0-6.46 2.78-11.907 7.427-14.566 4.202-2.406 9.31-2.197 14.48.566a14.324 14.324 0 0 1 3.181-11.14 1.255 1.255 0 0 1 1.743-.174 1.264 1.264 0 0 1 .175 1.743 11.68 11.68 0 0 0-2.615 9.737c5.23-2.929 10.46-3.2 14.819-.75 4.655 2.668 7.427 8.116 7.427 14.576 0 9.388-4.969 20.468-14.192 22.507-1.804.401-3.792 0-5.893-.392-1.037-.192-2.11-.4-3.242-.54-1.125.14-2.197.348-3.234.54a22.863 22.863 0 0 1-4.22.575Zm-2.1-38.041a11.68 11.68 0 0 0-5.893 1.551c-4.359 2.502-6.974 7.663-6.974 13.808 0 9.18 5.056 19.788 13.512 21.663 1.63.357 3.487 0 5.544-.401 1.063-.2 2.17-.419 3.356-.558h.096c1.185.14 2.292.357 3.356.557 2.1.41 3.914.759 5.544.401 8.456-1.874 13.503-12.483 13.503-21.662 0-6.102-2.615-11.332-6.974-13.816-4.14-2.372-9.266-1.997-14.427 1.037a.418.418 0 0 1-.392 0 .409.409 0 0 1-.253-.297 12.518 12.518 0 0 1 2.615-11.062.392.392 0 0 0-.052-.549.4.4 0 0 0-.279-.087.392.392 0 0 0-.261.14 13.292 13.292 0 0 0-2.842 11.332.463.463 0 0 1-.174.444.453.453 0 0 1-.48 0 16.982 16.982 0 0 0-8.525-2.501Z" fill="#2E2E2E"/><path d="M69.224 24.021a7.374 7.374 0 0 1-4.454-1.299c-2.615-2.022-2.85-6.102-2.86-6.293a.445.445 0 0 1 .332-.445c.174 0 4.149-.959 6.799 1.055 2.65 2.013 2.85 6.102 2.86 6.294a.435.435 0 0 1-.34.436c-.767.174-1.551.259-2.337.252Zm-3.931-1.996c1.9 1.438 4.707 1.142 5.7.968-.113-1.011-.592-3.819-2.484-5.23-1.891-1.413-4.698-1.134-5.692-.968.113 1.002.584 3.818 2.476 5.23Z" fill="#2E2E2E"/><defs><linearGradient id="b" x1="77.991" y1="88.904" x2="76.102" y2="1.981" gradientUnits="userSpaceOnUse"><stop stop-color="#6D7582"/><stop offset="1" stop-color="#F4ECFF"/></linearGradient><linearGradient id="c" x1="80.046" y1="86.139" x2="78.156" y2="-.783" gradientUnits="userSpaceOnUse"><stop stop-color="#E8F0FE"/><stop offset="1" stop-color="#F4ECFF"/></linearGradient></defs></svg>
